X:63
T:MR PRESTON'S HORNPIPE, 1st setting
B:John of the Greeny Cheshire Way
N: John Offord, Reproduced with permission
M:3/2
L:1/8
K:G
P:1
a4 g4 e4 | a2 e4 dc BcdB |\
a4 g4 e4 | g2 d4 G2 BcdB ||
P:2
A2 e4 A2 c4 | A2 e4 A2 BcdB |\
A2 e4 A2 c4 | B2 g4 d2 BcdB ||
P:3
a e3 f d3 e c3 | a2 e4 dc BcdB |\
a e3 f d3 e c3 | g2 d4 G2 BcdB ||
P:4
A2 e2 cdec A2 e2 | A2 e4 dc BcdB |\
A2 e2 cdec A2 a2 | g2 d4 G2 BcdB |
P:5
A2 a2 cdec A2 a2 | A2 a2 cdec A2 g2|\
A2 a2 cdec A2 a2 | g2 d4   G2 BcdB ||
P:6
A2 a4 e2 cdec | A2 a4 d2 BcdB |\
A2 a4 e2 cdec | B2 g4 d2 BcdB ||
P:7
A2 e2 cdec A2 e2 | cdec  A2 e2 BcdB |\
A2 e2 cdec A2 e2 | d2 g2 d2 G2 BcdB ||
P:8
A2 a2 e2 c2 A2 a2 | A2 a2 cdec B2 g2 |\
A2 a2 e2 c2 A2 a2 | g2 d2 B2 G2 BcdB ||
P:9
A2 c4 d2 e2 A2 | c2 e2 A2 d2 BcdB |\
A2 c4 d2 e2 dc | B2 g2 d2 G2 BcdB ||
P:10
agfe fedc dcBA | a2 e4 dc BcdB |\
agfe fedc dcBA | g2 B4 G2 BcdB ||
P:11
A2 e4 A2 c3 B | A2 e4 A2 BcdB |\
A2 e4 A2 c4   | B2 g4 d2 BcdB |]
